src/assets/transitions/homeSpacer3.svg

<svg xmlns="http://www.w3.org/2000/svg" width="900" height="200"><path fill="#092100" d="M0 0h900v200H0z"/><path fill="#092100" d="m0 152 18.8-4.7c18.9-4.6 56.5-14 94-11.6 37.5 2.3 74.9 16.3 112.4 22.6 37.5 6.4 75.1 5 112.6-2.5s74.9-21.1 112.4-21.5c37.5-.3 75.1 12.7 112.6 18.9 37.5 6.1 74.9 5.5 112.4 5.3s75.1.2 112.6-.5 74.9-2.3 93.5-3.2l18.7-.8V0H0Z"/><path fill="#0a2601" d="m0 149 18.8-5.2c18.9-5.1 56.5-15.5 94-15.6 37.5-.2 74.9 9.8 112.4 9.1 37.5-.6 75.1-12 112.6-20s74.9-12.6 112.4-6.6 75.1 22.6 112.6 27c37.5 4.3 74.9-3.7 112.4-9.7s75.1-10 112.6-13.2c37.5-3.1 74.9-5.5 93.5-6.6L900 107V0H0Z"/><path fill="#092b02" d="m0 110 18.8.3c18.9.4 56.5 1 94 2s74.9 2.4 112.4 3.7 75.1 2.7 112.6 2.5 74.9-1.8 112.4 0 75.1 7.2 112.6 3 74.9-17.8 112.4-23.3 75.1-2.9 112.6-2.9 74.9-2.6 93.5-4L900 90V0H0Z"/><path fill="#083003" d="m0 76 18.8.7c18.9.6 56.5 2 94 6.5s74.9 12.1 112.4 13.5c37.5 1.3 75.1-3.7 112.6-7.9 37.5-4.1 74.9-7.5 112.4-6.3s75.1 6.8 112.6 8.5 74.9-.7 112.4-3.8c37.5-3.2 75.1-7.2 112.6-7.7s74.9 2.5 93.5 4L900 85V0H0Z"/><path fill="#073503" d="m0 73 18.8 2.8c18.9 2.9 56.5 8.5 94 7.2s74.9-9.7 112.4-11.5 75.1 2.8 112.6 5.7C375.3 80 412.7 81 450.2 80s75.1-4 112.6-5.8c37.5-1.9 74.9-2.5 112.4-.9 37.5 1.7 75.1 5.7 112.6 8.4 37.5 2.6 74.9 4 93.5 4.6l18.7.7V0H0Z"/><path fill="#063a03" d="m0 51 18.8 1.7c18.9 1.6 56.5 5 94 6.8s74.9 2.2 112.4 3.5 75.1 3.7 112.6 3.3c37.5-.3 74.9-3.3 112.4-5.3s75.1-3 112.6-4.3c37.5-1.4 74.9-3 112.4-1.9 37.5 1.2 75.1 5.2 112.6 9.9 37.5 4.6 74.9 10 93.5 12.6L900 80V0H0Z"/><path fill="#054002" d="m0 39 18.8 2.5c18.9 2.5 56.5 7.5 94 6.8 37.5-.6 74.9-7 112.4-10.3s75.1-3.7 112.6-.8C375.3 40 412.7 46 450.2 51s75.1 9 112.6 6.5S637.7 46 675.2 42.7c37.5-3.4 75.1-1 112.6 2.8s74.9 9.2 93.5 11.8L900 60V0H0Z"/><path fill="#034501" d="m0 23 18.8 3.5c18.9 3.5 56.5 10.5 94 12s74.9-2.5 112.4-2.2c37.5.4 75.1 5 112.6 6.9 37.5 1.8 74.9.8 112.4-.5 37.5-1.4 75.1-3 112.6-5.9 37.5-2.8 74.9-6.8 112.4-9.3s75.1-3.5 112.6-2.2c37.5 1.4 74.9 5 93.5 6.9L900 34V0H0Z"/><path fill="#024b00" d="m0 19 18.8 1c18.9 1 56.5 3 94 3s74.9-2 112.4-3.2c37.5-1.1 75.1-1.5 112.6-3.1 37.5-1.7 74.9-4.7 112.4-3 37.5 1.6 75.1 8 112.6 10.3s74.9.7 112.4.8c37.5.2 75.1 2.2 112.6 3.2s74.9 1 93.5 1H900V0H0Z"/></svg>

<svg id="visual" viewBox="0 0 900 200" width="900" height="200" xmlns="http://www.w3.org/2000/svg" xmlns:xlink="http://www.w3.org/1999/xlink" version="1.1"><rect x="0" y="0" width="900" height="200" fill="#092100"></rect><path d="M0 152L18.8 147.3C37.7 142.7 75.3 133.3 112.8 135.7C150.3 138 187.7 152 225.2 158.3C262.7 164.7 300.3 163.3 337.8 155.8C375.3 148.3 412.7 134.7 450.2 134.3C487.7 134 525.3 147 562.8 153.2C600.3 159.3 637.7 158.7 675.2 158.5C712.7 158.3 750.3 158.7 787.8 158C825.3 157.3 862.7 155.7 881.3 154.8L900 154L900 0L881.3 0C862.7 0 825.3 0 787.8 0C750.3 0 712.7 0 675.2 0C637.7 0 600.3 0 562.8 0C525.3 0 487.7 0 450.2 0C412.7 0 375.3 0 337.8 0C300.3 0 262.7 0 225.2 0C187.7 0 150.3 0 112.8 0C75.3 0 37.7 0 18.8 0L0 0Z" fill="#092100"></path><path d="M0 149L18.8 143.8C37.7 138.7 75.3 128.3 112.8 128.2C150.3 128 187.7 138 225.2 137.3C262.7 136.7 300.3 125.3 337.8 117.3C375.3 109.3 412.7 104.7 450.2 110.7C487.7 116.7 525.3 133.3 562.8 137.7C600.3 142 637.7 134 675.2 128C712.7 122 750.3 118 787.8 114.8C825.3 111.7 862.7 109.3 881.3 108.2L900 107L900 0L881.3 0C862.7 0 825.3 0 787.8 0C750.3 0 712.7 0 675.2 0C637.7 0 600.3 0 562.8 0C525.3 0 487.7 0 450.2 0C412.7 0 375.3 0 337.8 0C300.3 0 262.7 0 225.2 0C187.7 0 150.3 0 112.8 0C75.3 0 37.7 0 18.8 0L0 0Z" fill="#0a2601"></path><path d="M0 110L18.8 110.3C37.7 110.7 75.3 111.3 112.8 112.3C150.3 113.3 187.7 114.7 225.2 116C262.7 117.3 300.3 118.7 337.8 118.5C375.3 118.3 412.7 116.7 450.2 118.5C487.7 120.3 525.3 125.7 562.8 121.5C600.3 117.3 637.7 103.7 675.2 98.2C712.7 92.7 750.3 95.3 787.8 95.3C825.3 95.3 862.7 92.7 881.3 91.3L900 90L900 0L881.3 0C862.7 0 825.3 0 787.8 0C750.3 0 712.7 0 675.2 0C637.7 0 600.3 0 562.8 0C525.3 0 487.7 0 450.2 0C412.7 0 375.3 0 337.8 0C300.3 0 262.7 0 225.2 0C187.7 0 150.3 0 112.8 0C75.3 0 37.7 0 18.8 0L0 0Z" fill="#092b02"></path><path d="M0 76L18.8 76.7C37.7 77.3 75.3 78.7 112.8 83.2C150.3 87.7 187.7 95.3 225.2 96.7C262.7 98 300.3 93 337.8 88.8C375.3 84.7 412.7 81.3 450.2 82.5C487.7 83.7 525.3 89.3 562.8 91C600.3 92.7 637.7 90.3 675.2 87.2C712.7 84 750.3 80 787.8 79.5C825.3 79 862.7 82 881.3 83.5L900 85L900 0L881.3 0C862.7 0 825.3 0 787.8 0C750.3 0 712.7 0 675.2 0C637.7 0 600.3 0 562.8 0C525.3 0 487.7 0 450.2 0C412.7 0 375.3 0 337.8 0C300.3 0 262.7 0 225.2 0C187.7 0 150.3 0 112.8 0C75.3 0 37.7 0 18.8 0L0 0Z" fill="#083003"></path><path d="M0 73L18.8 75.8C37.7 78.7 75.3 84.3 112.8 83C150.3 81.7 187.7 73.3 225.2 71.5C262.7 69.7 300.3 74.3 337.8 77.2C375.3 80 412.7 81 450.2 80C487.7 79 525.3 76 562.8 74.2C600.3 72.3 637.7 71.7 675.2 73.3C712.7 75 750.3 79 787.8 81.7C825.3 84.3 862.7 85.7 881.3 86.3L900 87L900 0L881.3 0C862.7 0 825.3 0 787.8 0C750.3 0 712.7 0 675.2 0C637.7 0 600.3 0 562.8 0C525.3 0 487.7 0 450.2 0C412.7 0 375.3 0 337.8 0C300.3 0 262.7 0 225.2 0C187.7 0 150.3 0 112.8 0C75.3 0 37.7 0 18.8 0L0 0Z" fill="#073503"></path><path d="M0 51L18.8 52.7C37.7 54.3 75.3 57.7 112.8 59.5C150.3 61.3 187.7 61.7 225.2 63C262.7 64.3 300.3 66.7 337.8 66.3C375.3 66 412.7 63 450.2 61C487.7 59 525.3 58 562.8 56.7C600.3 55.3 637.7 53.7 675.2 54.8C712.7 56 750.3 60 787.8 64.7C825.3 69.3 862.7 74.7 881.3 77.3L900 80L900 0L881.3 0C862.7 0 825.3 0 787.8 0C750.3 0 712.7 0 675.2 0C637.7 0 600.3 0 562.8 0C525.3 0 487.7 0 450.2 0C412.7 0 375.3 0 337.8 0C300.3 0 262.7 0 225.2 0C187.7 0 150.3 0 112.8 0C75.3 0 37.7 0 18.8 0L0 0Z" fill="#063a03"></path><path d="M0 39L18.8 41.5C37.7 44 75.3 49 112.8 48.3C150.3 47.7 187.7 41.3 225.2 38C262.7 34.7 300.3 34.3 337.8 37.2C375.3 40 412.7 46 450.2 51C487.7 56 525.3 60 562.8 57.5C600.3 55 637.7 46 675.2 42.7C712.7 39.3 750.3 41.7 787.8 45.5C825.3 49.3 862.7 54.7 881.3 57.3L900 60L900 0L881.3 0C862.7 0 825.3 0 787.8 0C750.3 0 712.7 0 675.2 0C637.7 0 600.3 0 562.8 0C525.3 0 487.7 0 450.2 0C412.7 0 375.3 0 337.8 0C300.3 0 262.7 0 225.2 0C187.7 0 150.3 0 112.8 0C75.3 0 37.7 0 18.8 0L0 0Z" fill="#054002"></path><path d="M0 23L18.8 26.5C37.7 30 75.3 37 112.8 38.5C150.3 40 187.7 36 225.2 36.3C262.7 36.7 300.3 41.3 337.8 43.2C375.3 45 412.7 44 450.2 42.7C487.7 41.3 525.3 39.7 562.8 36.8C600.3 34 637.7 30 675.2 27.5C712.7 25 750.3 24 787.8 25.3C825.3 26.7 862.7 30.3 881.3 32.2L900 34L900 0L881.3 0C862.7 0 825.3 0 787.8 0C750.3 0 712.7 0 675.2 0C637.7 0 600.3 0 562.8 0C525.3 0 487.7 0 450.2 0C412.7 0 375.3 0 337.8 0C300.3 0 262.7 0 225.2 0C187.7 0 150.3 0 112.8 0C75.3 0 37.7 0 18.8 0L0 0Z" fill="#034501"></path><path d="M0 19L18.8 20C37.7 21 75.3 23 112.8 23C150.3 23 187.7 21 225.2 19.8C262.7 18.7 300.3 18.3 337.8 16.7C375.3 15 412.7 12 450.2 13.7C487.7 15.3 525.3 21.7 562.8 24C600.3 26.3 637.7 24.7 675.2 24.8C712.7 25 750.3 27 787.8 28C825.3 29 862.7 29 881.3 29L900 29L900 0L881.3 0C862.7 0 825.3 0 787.8 0C750.3 0 712.7 0 675.2 0C637.7 0 600.3 0 562.8 0C525.3 0 487.7 0 450.2 0C412.7 0 375.3 0 337.8 0C300.3 0 262.7 0 225.2 0C187.7 0 150.3 0 112.8 0C75.3 0 37.7 0 18.8 0L0 0Z" fill="#024b00"></path></svg>
